;FLAVOR:Marlin
;TIME:14975
;Filament used: 15.2568m
;Layer height: 0.28
;MINX:66.47
;MINY:77.783
;MINZ:0.28
;MAXX:153.53
;MAXY:142.239
;MAXZ:69.08
;Generated with Cura_SteamEngine 4.2.1
M140 S65
M105
M190 S65
M104 S210
M105
M109 S210
M82 ;absolute extrusion mode
M201 X500.00 Y500.00 Z100.00 E5000.00 ;Setup machine max acceleration
M203 X500.00 Y500.00 Z10.00 E50.00 ;Setup machine max feedrate
M204 P500.00 R1000.00 T500.00 ;Setup Print/Retract/Travel acceleration
M205 X8.00 Y8.00 Z0.40 E5.00 ;Setup Jerk
M220 S100 ;Reset Feedrate
M221 S100 ;Reset Flowrate

G28 ;Home

G92 E0 ;Reset Extruder
G1 Z2.0 F3000 ;Move Z Axis up
G1 X10.1 Y20 Z0.28 F5000.0 ;Move to start position
G1 X10.1 Y200.0 Z0.28 F1500.0 E15 ;Draw the first line
G1 X10.4 Y200.0 Z0.28 F5000.0 ;Move to side a little
G1 X10.4 Y20 Z0.28 F1500.0 E30 ;Draw the second line
G92 E0 ;Reset Extruder
G1 Z2.0 F3000 ;Move Z Axis up

M141 S28
G92 E0
G92 E0
G1 F2700 E-5
;LAYER_COUNT:246
;LAYER:0
M107
G0 F6000 X100.22 Y101.178 Z0.28
;TYPE:SUPPORT
G1 F2700 E0
G1 F1200 X119.78 Y101.179 E1.00188
G1 X119.78 Y104.891 E1.19201
G1 X119.785 Y104.896 E1.19237
G1 X100.216 Y104.896 E2.1947
G1 X100.22 Y101.178 E2.38514
G0 F6000 X100.66 Y101.618
G1 F1200 X119.34 Y101.619 E3.34194
G1 X119.34 Y104.456 E3.48726
G1 X100.656 Y104.456 E4.44426
G1 X100.66 Y101.618 E4.58963
G0 F6000 X101.2 Y101.707
G1 F1200 X101.2 Y104.368 E4.72592
G0 F6000 X100.746 Y103.4
G1 F1200 X119.252 Y103.4 E5.67381
G0 F6000 X118.8 Y104.368
G1 F1200 X118.8 Y101.707 E5.81011
G1 F2700 E0.81011
G1 F600 Z0.48
G0 F6000 X116.6 Y101.707 Z0.48
G1 F600 Z0.28
G1 F2700 E5.81011
G1 F1200 X116.6 Y104.368 E5.94641
G1 F2700 E0.94641
G1 F600 Z0.48
G0 F6000 X114.4 Y104.368 Z0.48
G1 F600 Z0.28
G1 F2700 E5.94641
G1 F1200 X114.4 Y101.707 E6.08271
G1 F2700 E1.08271
G1 F600 Z0.48
G0 F6000 X112.2 Y101.707 Z0.48
G1 F600 Z0.28
G1 F2700 E6.08271
G1 F1200 X112.2 Y104.368 E6.21901
G1 F2700 E1.21901
G1 F600 Z0.48
G0 F6000 X110 Y104.368 Z0.48
G1 F600 Z0.28
G1 F2700 E6.21901
G1 F1200 X110 Y101.707 E6.3553
G1 F2700 E1.3553
G1 F600 Z0.48
G0 F6000 X107.8 Y101.707 Z0.48
G1 F600 Z0.28
G1 F2700 E6.3553
G1 F1200 X107.8 Y104.368 E6.4916
G1 F2700 E1.4916
G1 F600 Z0.48
G0 F6000 X105.6 Y104.368 Z0.48
G1 F600 Z0.28
G1 F2700 E6.4916
G1 F1200 X105.6 Y101.707 E6.6279
G1 F2700 E1.6279
G1 F600 Z0.48
G0 F6000 X103.4 Y101.707 Z0.48
G1 F600 Z0.28
G1 F2700 E6.6279
G1 F1200 X103.4 Y104.368 E6.7642
G1 F2700 E1.7642
G1 F600 Z0.48
;MESH:dock.stl
G0 F6000 X153.09 Y141.799 Z0.48
;TYPE:WALL-INNER
G1 F600 Z0.28
G1 F2700 E6.7642
G1 F1200 X66.91 Y141.799 E11.17839
G1 X66.91 Y78.443 E14.42352
G1 X66.91 Y78.223 E14.43479
G1 X67.13 Y78.223 E14.44208
G1 X153.09 Y78.224 E18.845
G1 X153.09 Y141.799 E22.10135
G1 F2700 E17.10135
G1 F600 Z0.48
G0 F6000 X106.114 Y137.536 Z0.48
G1 F600 Z0.28
G1 F2700 E22.10135
G1 F1200 X113.886 Y137.536 E22.49944
G1 X121.488 Y135.919 E22.89753
G1 X121.747 Y135.804 E22.91204
G1 X128.59 Y132.757 E23.29572
G1 X128.819 Y132.591 E23.31021
G1 X134.878 Y128.189 E23.69381
G1 X140.079 Y122.413 E24.09193
G1 X143.966 Y115.682 E24.49005
G1 X146.367 Y108.289 E24.88819
G1 X147.179 Y100.559 E25.28631
G1 X146.925 Y98.115 E25.41217
G1 X145.03 Y98.114 E25.50923
G1 X74.411 Y98.115 E29.12638
G1 X73.076 Y98.114 E29.19476
G1 X72.825 Y100.53 E29.31917
G1 X73.633 Y108.289 E29.71874
G1 X76.034 Y115.682 E30.11689
G1 X79.921 Y122.413 E30.51501
G1 X85.121 Y128.188 E30.91305
G1 X85.35 Y128.355 E30.92757
G1 X91.409 Y132.757 E31.31117
G1 X91.667 Y132.873 E31.32566
G1 X98.512 Y135.919 E31.70941
G1 X106.114 Y137.536 E32.1075
G1 F2700 E27.1075
G1 F600 Z0.48
G0 F6000 X153.53 Y142.239 Z0.48
;TYPE:WALL-OUTER
G1 F600 Z0.28
G1 F2700 E32.1075
G1 F1200 X66.47 Y142.239 E36.56677
G1 X66.47 Y78.003 E39.85698
G1 X66.47 Y77.783 E39.86825
G1 X66.69 Y77.783 E39.87553
G1 X153.53 Y77.784 E44.32353
G1 X153.53 Y142.239 E47.62495
G1 F2700 E42.62495
G1 F600 Z0.48
G0 F6000 X106.16 Y137.096 Z0.48
G1 F600 Z0.28
G1 F2700 E47.62495
G1 F1200 X113.84 Y137.096 E48.01833
G1 X121.352 Y135.498 E48.41171
G1 X121.569 Y135.402 E48.42386
G1 X128.369 Y132.374 E48.80513
G1 X128.561 Y132.235 E48.81727
G1 X134.582 Y127.86 E49.19849
G1 X139.721 Y122.153 E49.59185
G1 X143.562 Y115.502 E49.98525
G1 X145.934 Y108.197 E50.37865
G1 X146.737 Y100.559 E50.77203
G1 X146.528 Y98.555 E50.87523
G1 X145.03 Y98.554 E50.95196
G1 X74.411 Y98.555 E54.56911
G1 X73.473 Y98.554 E54.61715
G1 X73.267 Y100.53 E54.71891
G1 X74.066 Y108.197 E55.11375
G1 X76.438 Y115.502 E55.50714
G1 X80.279 Y122.153 E55.90054
G1 X85.418 Y127.86 E56.2939
G1 X85.609 Y128 E56.30603
G1 X91.631 Y132.374 E56.68726
G1 X91.847 Y132.471 E56.69939
G1 X98.648 Y135.498 E57.08069
G1 X98.88 Y135.547 E57.09283
G1 X106.16 Y137.096 E57.47407
G0 F6000 X106.069 Y137.966
;TYPE:SKIN
G1 F1200 X113.931 Y137.966 E57.87676
G1 X121.621 Y136.33 E58.27946
G1 X121.921 Y136.197 E58.29627
G1 X128.805 Y133.132 E58.68225
G1 X135.167 Y128.51 E59.08503
G1 X140.429 Y122.667 E59.48779
G1 X144.361 Y115.858 E59.89052
G1 X146.79 Y108.379 E60.2933
G1 X147.611 Y100.559 E60.69604
G1 X147.312 Y97.685 E60.84405
G1 X145.03 Y97.684 E60.96093
G1 X74.411 Y97.685 E64.57808
G1 X72.689 Y97.684 E64.66628
G1 X72.393 Y100.53 E64.81284
G1 X73.21 Y108.379 E65.21704
G1 X75.639 Y115.858 E65.61982
G1 X79.571 Y122.667 E66.02256
G1 X84.831 Y128.509 E66.42521
G1 X85.096 Y128.702 E66.442
G1 X91.192 Y133.13 E66.82792
G1 X91.491 Y133.266 E66.84474
G1 X98.378 Y136.33 E67.23084
G1 X106.069 Y137.966 E67.63359
G1 F2700 E62.63359
G1 F600 Z0.48
G0 F6000 X67.34 Y141.369 Z0.48
G1 F600 Z0.28
G1 F2700 E67.63359
G1 F1200 X67.34 Y78.653 E70.84594
G1 X152.66 Y78.654 E75.21608
G1 X152.66 Y141.369 E78.42838
G1 X67.34 Y141.369 E82.79852
G0 F6000 X67.766 Y141.192
G1 F1200 X67.515 Y140.941 E82.81671
G0 F6000 X67.515 Y140.319
G1 F1200 X68.388 Y141.192 E82.87994
G0 F6000 X69.01 Y141.192
G1 F1200 X67.515 Y139.697 E82.98824
G0 F6000 X67.515 Y139.075
G1 F1200 X69.633 Y141.192 E83.14162
G0 F6000 X70.255 Y141.192
G1 F1200 X67.515 Y138.452 E83.3401
G0 F6000 X67.515 Y137.83
G1 F1200 X70.877 Y141.192 E83.58363
G0 F6000 X71.499 Y141.192
G1 F1200 X67.515 Y137.208 E83.87222
G0 F6000 X67.515 Y136.586
G1 F1200 X72.122 Y141.192 E84.2059
G0 F6000 X72.744 Y141.192
G1 F1200 X67.515 Y135.963 E84.58467
G0 F6000 X67.515 Y135.341
G1 F1200 X73.366 Y141.192 E85.0085
G0 F6000 X73.988 Y141.192
G1 F1200 X67.515 Y134.719 E85.47738
G0 F6000 X67.515 Y134.097
G1 F1200 X74.611 Y141.192 E85.99136
G0 F6000 X75.233 Y141.192
G1 F1200 X67.515 Y133.474 E86.55043
G0 F6000 X67.515 Y132.852
G1 F1200 X75.855 Y141.192 E87.15455
G0 F6000 X76.477 Y141.192
G1 F1200 X67.515 Y132.23 E87.80373
G0 F6000 X67.515 Y131.608
G1 F1200 X77.1 Y141.192 E88.498
G0 F6000 X77.722 Y141.192
G1 F1200 X67.515 Y130.985 E89.23737
G0 F6000 X67.515 Y130.363
G1 F1200 X78.344 Y141.192 E90.02178
G0 F6000 X78.966 Y141.192
G1 F1200 X67.515 Y129.741 E90.85126
G0 F6000 X67.515 Y129.119
G1 F1200 X79.589 Y141.192 E91.72583
G0 F6000 X80.211 Y141.192
G1 F1200 X67.515 Y128.496 E92.64548
G0 F6000 X67.515 Y127.874
G1 F1200 X80.833 Y141.192 E93.6102
G0 F6000 X81.455 Y141.192
G1 F1200 X67.515 Y127.252 E94.61997
G0 F6000 X67.515 Y126.63
G1 F1200 X82.078 Y141.192 E95.67483
G0 F6000 X82.7 Y141.192
G1 F1200 X67.515 Y126.007 E96.77478
G0 F6000 X67.515 Y125.385
G1 F1200 X83.322 Y141.192 E97.91979
G0 F6000 X83.944 Y141.192
G1 F1200 X67.515 Y124.763 E99.10986
G0 F6000 X67.515 Y124.141
G1 F1200 X84.567 Y141.192 E100.34502
G0 F6000 X85.189 Y141.192
G1 F1200 X67.515 Y123.518 E101.62527
G0 F6000 X67.515 Y122.896
G1 F1200 X85.811 Y141.192 E102.95057
G0 F6000 X86.433 Y141.192
G1 F1200 X67.515 Y122.274 E104.32093
G0 F6000 X67.515 Y121.652
G1 F1200 X87.056 Y141.192 E105.73639
G0 F6000 X87.678 Y141.192
G1 F1200 X67.515 Y121.029 E107.19693
G0 F6000 X67.515 Y120.407
G1 F1200 X88.3 Y141.192 E108.70253
G0 F6000 X88.922 Y141.192
G1 F1200 X67.515 Y119.785 E110.25319
G0 F6000 X67.515 Y119.163
G1 F1200 X89.545 Y141.192 E111.84894
G0 F6000 X90.167 Y141.192
G1 F1200 X67.515 Y118.54 E113.48978
G0 F6000 X67.515 Y117.918
G1 F1200 X90.789 Y141.192 E115.17567
G0 F6000 X91.411 Y141.192
G1 F1200 X67.515 Y117.296 E116.90662
G0 F6000 X67.515 Y116.674
G1 F1200 X92.034 Y141.192 E118.68267
G0 F6000 X92.656 Y141.192
G1 F1200 X67.515 Y116.051 E120.5038
G0 F6000 X67.515 Y115.429
G1 F1200 X93.278 Y141.192 E122.36999
G0 F6000 X93.9 Y141.192
G1 F1200 X67.515 Y114.807 E124.28124
G0 F6000 X67.515 Y114.185
G1 F1200 X94.523 Y141.192 E126.23758
G0 F6000 X95.145 Y141.192
G1 F1200 X67.515 Y113.562 E128.23901
G0 F6000 X67.515 Y112.94
G1 F1200 X95.767 Y141.192 E130.2855
G0 F6000 X96.389 Y141.192
G1 F1200 X67.515 Y112.318 E132.37704
G0 F6000 X67.515 Y111.696
G1 F1200 X97.012 Y141.192 E134.51367
G0 F6000 X97.634 Y141.192
G1 F1200 X86.066 Y129.623 E135.35166
G1 F2700 E130.35166
G1 F600 Z0.48
G0 F6000 X88.338 Y131.273 Z0.48
G1 F600 Z0.28
G1 F2700 E135.35166
G1 F1200 X98.256 Y141.192 E136.07013
G0 F6000 X98.878 Y141.192
G1 F1200 X90.61 Y132.923 E136.66907
G1 F2700 E131.66907
G1 F600 Z0.48
G0 F6000 X91.989 Y133.68 Z0.48
G1 F600 Z0.28
G1 F2700 E136.66907
G1 F1200 X99.501 Y141.192 E137.21322
G0 F6000 X100.123 Y141.192
G1 F1200 X93.11 Y134.179 E137.72122
G0 F6000 X94.231 Y134.677
G1 F1200 X100.745 Y141.192 E138.19311
G0 F6000 X101.367 Y141.192
G1 F1200 X95.351 Y135.175 E138.62892
G0 F6000 X96.471 Y135.673
G1 F1200 X101.99 Y141.192 E139.0287
G0 F6000 X102.612 Y141.192
G1 F1200 X97.592 Y136.172 E139.39233
G0 F6000 X98.598 Y136.555
G1 F1200 X103.234 Y141.192 E139.72819
G0 F6000 X103.857 Y141.192
G1 F1200 X99.388 Y136.724 E140.05187
G0 F6000 X100.179 Y136.892
G1 F1200 X104.479 Y141.192 E140.36335
G0 F6000 X105.101 Y141.192
G1 F1200 X100.969 Y137.06 E140.66266
G0 F6000 X101.76 Y137.228
G1 F1200 X105.723 Y141.192 E140.94976
G0 F6000 X106.346 Y141.192
G1 F1200 X102.55 Y137.396 E141.22473
G0 F6000 X103.34 Y137.564
G1 F1200 X106.968 Y141.192 E141.48753
G0 F6000 X107.59 Y141.192
G1 F1200 X104.131 Y137.733 E141.73809
G0 F6000 X104.921 Y137.901
G1 F1200 X108.212 Y141.192 E141.97648
G0 F6000 X108.835 Y141.192
G1 F1200 X105.712 Y138.069 E142.2027
G0 F6000 X106.406 Y138.141
G1 F1200 X109.457 Y141.192 E142.42371
G0 F6000 X110.079 Y141.192
G1 F1200 X107.028 Y138.141 E142.64471
G0 F6000 X107.65 Y138.141
G1 F1200 X110.701 Y141.192 E142.86572
G0 F6000 X111.324 Y141.192
G1 F1200 X108.272 Y138.141 E143.08676
G0 F6000 X108.895 Y138.141
G1 F1200 X111.946 Y141.192 E143.30776
G0 F6000 X112.568 Y141.192
G1 F1200 X109.517 Y138.141 E143.52877
G0 F6000 X110.139 Y138.141
G1 F1200 X113.19 Y141.192 E143.74977
G0 F6000 X113.813 Y141.192
G1 F1200 X110.761 Y138.141 E143.97082
G0 F6000 X111.384 Y138.141
G1 F1200 X114.435 Y141.192 E144.19182
G0 F6000 X115.057 Y141.192
G1 F1200 X112.006 Y138.141 E144.41283
G0 F6000 X112.628 Y138.141
G1 F1200 X115.679 Y141.192 E144.63383
G0 F6000 X116.302 Y141.192
G1 F1200 X113.25 Y138.141 E144.85487
G0 F6000 X113.873 Y138.141
G1 F1200 X116.924 Y141.192 E145.07588
G0 F6000 X117.546 Y141.192
G1 F1200 X114.399 Y138.045 E145.30384
G0 F6000 X114.913 Y137.936
G1 F1200 X118.168 Y141.192 E145.53965
G0 F6000 X118.791 Y141.192
G1 F1200 X115.425 Y137.827 E145.78344
G0 F6000 X115.939 Y137.718
G1 F1200 X119.413 Y141.192 E146.03509
G0 F6000 X120.035 Y141.192
G1 F1200 X116.452 Y137.608 E146.29466
G0 F6000 X116.965 Y137.499
G1 F1200 X120.657 Y141.192 E146.56214
G0 F6000 X121.28 Y141.192
G1 F1200 X117.478 Y137.39 E146.83754
G0 F6000 X117.991 Y137.281
G1 F1200 X121.902 Y141.192 E147.12084
G0 F6000 X122.524 Y141.192
G1 F1200 X118.504 Y137.172 E147.41204
G0 F6000 X119.018 Y137.063
G1 F1200 X123.146 Y141.192 E147.71109
G0 F6000 X123.769 Y141.192
G1 F1200 X119.53 Y136.953 E148.01815
G0 F6000 X120.044 Y136.844
G1 F1200 X124.391 Y141.192 E148.33307
G0 F6000 X125.013 Y141.192
G1 F1200 X120.556 Y136.735 E148.65592
G0 F6000 X121.07 Y136.626
G1 F1200 X125.635 Y141.192 E148.98663
G0 F6000 X126.258 Y141.192
G1 F1200 X121.583 Y136.517 E149.32528
G0 F6000 X122.029 Y136.341
G1 F1200 X126.88 Y141.192 E149.67667
G0 F6000 X127.502 Y141.192
G1 F1200 X122.46 Y136.149 E150.04193
G0 F6000 X122.89 Y135.958
G1 F1200 X128.124 Y141.192 E150.42107
G0 F6000 X128.747 Y141.192
G1 F1200 X123.321 Y135.766 E150.81411
G0 F6000 X123.752 Y135.574
G1 F1200 X129.369 Y141.192 E151.22102
G0 F6000 X129.991 Y141.192
G1 F1200 X124.182 Y135.383 E151.64181
G0 F6000 X124.612 Y135.191
G1 F1200 X130.613 Y141.192 E152.0765
G0 F6000 X131.236 Y141.192
G1 F1200 X125.043 Y134.999 E152.5251
G0 F6000 X125.473 Y134.807
G1 F1200 X131.858 Y141.192 E152.98761
G0 F6000 X132.48 Y141.192
G1 F1200 X125.904 Y134.616 E153.46396
G0 F6000 X126.335 Y134.424
G1 F1200 X133.102 Y141.192 E153.95417
G0 F6000 X133.725 Y141.192
G1 F1200 X126.765 Y134.232 E154.45834
G0 F6000 X127.196 Y134.041
G1 F1200 X134.347 Y141.192 E154.97633
G0 F6000 X134.969 Y141.192
G1 F1200 X127.627 Y133.849 E155.5082
G0 F6000 X128.057 Y133.657
G1 F1200 X135.591 Y141.192 E156.05397
G0 F6000 X136.214 Y141.192
G1 F1200 X128.487 Y133.465 E156.61369
G0 F6000 X128.914 Y133.269
G1 F1200 X136.836 Y141.192 E157.18758
G0 F6000 X137.458 Y141.192
G1 F1200 X129.274 Y133.008 E157.7804
G0 F6000 X129.634 Y132.745
G1 F1200 X138.08 Y141.192 E158.39224
G0 F6000 X138.703 Y141.192
G1 F1200 X129.995 Y132.484 E159.02302
G0 F6000 X130.355 Y132.222
G1 F1200 X139.325 Y141.192 E159.67278
G0 F6000 X139.947 Y141.192
G1 F1200 X130.715 Y131.96 E160.34151
G0 F6000 X131.076 Y131.698
G1 F1200 X140.569 Y141.192 E161.02919
G0 F6000 X141.192 Y141.192
G1 F1200 X131.436 Y131.436 E161.73589
G0 F6000 X131.796 Y131.174
G1 F1200 X141.814 Y141.192 E162.46156
G0 F6000 X142.436 Y141.192
G1 F1200 X132.157 Y130.913 E163.20614
G0 F6000 X132.517 Y130.65
G1 F1200 X143.059 Y141.192 E163.96977
G0 F6000 X143.681 Y141.192
G1 F1200 X132.878 Y130.389 E164.7523
G0 F6000 X133.238 Y130.127
G1 F1200 X144.303 Y141.192 E165.55382
G0 F6000 X144.925 Y141.192
G1 F1200 X133.598 Y129.865 E166.37431
G0 F6000 X133.959 Y129.603
G1 F1200 X145.548 Y141.192 E167.21378
G0 F6000 X146.17 Y141.192
G1 F1200 X134.319 Y129.341 E168.07223
G0 F6000 X134.679 Y129.079
G1 F1200 X146.792 Y141.192 E168.94966
G0 F6000 X147.414 Y141.192
G1 F1200 X135.04 Y128.817 E169.84603
G0 F6000 X135.379 Y128.534
G1 F1200 X148.037 Y141.192 E170.76294
G0 F6000 X148.659 Y141.192
G1 F1200 X135.673 Y128.206 E171.7036
G0 F6000 X135.968 Y127.879
G1 F1200 X149.281 Y141.192 E172.66795
G0 F6000 X149.903 Y141.192
G1 F1200 X136.263 Y127.552 E173.65599
G0 F6000 X136.558 Y127.224
G1 F1200 X150.526 Y141.192 E174.66779
G0 F6000 X151.148 Y141.192
G1 F1200 X136.853 Y126.897 E175.70328
G0 F6000 X137.148 Y126.569
G1 F1200 X151.77 Y141.192 E176.76248
G0 F6000 X152.392 Y141.192
G1 F1200 X137.443 Y126.242 E177.84538
G0 F6000 X137.738 Y125.915
G1 F1200 X152.483 Y140.66 E178.91346
G0 F6000 X152.483 Y140.038
G1 F1200 X138.032 Y125.587 E179.96025
G0 F6000 X138.327 Y125.26
G1 F1200 X152.483 Y139.416 E180.98566
G0 F6000 X152.483 Y138.793
G1 F1200 X138.622 Y124.933 E181.98967
G0 F6000 X138.917 Y124.605
G1 F1200 X152.483 Y138.171 E182.97235
G0 F6000 X152.483 Y137.549
G1 F1200 X139.212 Y124.278 E183.93366
G0 F6000 X139.507 Y123.95
G1 F1200 X152.483 Y136.926 E184.8736
G0 F6000 X152.483 Y136.304
G1 F1200 X139.802 Y123.623 E185.79217
G0 F6000 X140.096 Y123.296
G1 F1200 X152.483 Y135.682 E186.68941
G0 F6000 X152.483 Y135.06
G1 F1200 X140.391 Y122.968 E187.56532
G0 F6000 X140.66 Y122.615
G1 F1200 X152.483 Y134.437 E188.42171
G0 F6000 X152.483 Y133.815
G1 F1200 X140.888 Y122.22 E189.26161
G0 F6000 X141.116 Y121.826
G1 F1200 X152.483 Y133.193 E190.085
G0 F6000 X152.483 Y132.571
G1 F1200 X141.344 Y121.432 E190.89188
G0 F6000 X141.571 Y121.037
G1 F1200 X152.483 Y131.948 E191.68227
G0 F6000 X152.483 Y131.326
G1 F1200 X141.799 Y120.643 E192.45615
G0 F6000 X142.027 Y120.248
G1 F1200 X152.483 Y130.704 E193.21355
G0 F6000 X152.483 Y130.082
G1 F1200 X142.255 Y119.853 E193.95447
G0 F6000 X142.483 Y119.46
G1 F1200 X152.483 Y129.459 E194.6788
G0 F6000 X152.483 Y128.837
G1 F1200 X142.711 Y119.065 E195.38666
G0 F6000 X142.938 Y118.67
G1 F1200 X152.483 Y128.215 E196.07807
G0 F6000 X152.483 Y127.593
G1 F1200 X143.166 Y118.276 E196.75296
G0 F6000 X143.394 Y117.881
G1 F1200 X152.483 Y126.97 E197.41134
G0 F6000 X152.483 Y126.348
