;FLAVOR:Marlin
;TIME:15067
;Filament used: 14.5378m
;Layer height: 0.28
;MINX:66.47
;MINY:78.012
;MINZ:0.28
;MAXX:153.53
;MAXY:142.01
;MAXZ:80.84
;Generated with Cura_SteamEngine 4.2.1
M140 S65
M105
M190 S65
M104 S210
M105
M109 S210
M82 ;absolute extrusion mode
M201 X500.00 Y500.00 Z100.00 E5000.00 ;Setup machine max acceleration
M203 X500.00 Y500.00 Z10.00 E50.00 ;Setup machine max feedrate
M204 P500.00 R1000.00 T500.00 ;Setup Print/Retract/Travel acceleration
M205 X8.00 Y8.00 Z0.40 E5.00 ;Setup Jerk
M220 S100 ;Reset Feedrate
M221 S100 ;Reset Flowrate

G28 ;Home

G92 E0 ;Reset Extruder
G1 Z2.0 F3000 ;Move Z Axis up
G1 X10.1 Y20 Z0.28 F5000.0 ;Move to start position
G1 X10.1 Y200.0 Z0.28 F1500.0 E15 ;Draw the first line
G1 X10.4 Y200.0 Z0.28 F5000.0 ;Move to side a little
G1 X10.4 Y20 Z0.28 F1500.0 E30 ;Draw the second line
G92 E0 ;Reset Extruder
G1 Z2.0 F3000 ;Move Z Axis up

M141 S28
G92 E0
G92 E0
G1 F2700 E-5
;LAYER_COUNT:288
;LAYER:0
M107
G0 F6000 X83.896 Y81.116 Z0.28
;TYPE:SUPPORT
G1 F2700 E0
G1 F1200 X84.061 Y81.116 E0.00845
G1 X84.105 Y81.16 E0.01164
G1 X84.313 Y81.16 E0.02229
G1 X84.358 Y81.205 E0.02555
G1 X84.565 Y81.205 E0.03615
G1 X84.609 Y81.249 E0.03934
G1 X84.817 Y81.249 E0.05
G1 X84.861 Y81.293 E0.05318
G1 X85.069 Y81.293 E0.06384
G1 X85.114 Y81.338 E0.0671
G1 X85.321 Y81.338 E0.0777
G1 X85.365 Y81.382 E0.08089
G1 X85.573 Y81.382 E0.09154
G1 X85.617 Y81.426 E0.09473
G1 X85.825 Y81.426 E0.10538
G1 X85.87 Y81.471 E0.10864
G1 X86.077 Y81.471 E0.11924
G1 X86.121 Y81.515 E0.12243
G1 X86.329 Y81.515 E0.13309
G1 X86.374 Y81.56 E0.13634
G1 X86.582 Y81.56 E0.147
G1 X86.626 Y81.604 E0.15019
G1 X86.834 Y81.604 E0.16084
G1 X86.878 Y81.648 E0.16403
G1 X87.086 Y81.648 E0.17468
G1 X87.131 Y81.693 E0.17794
G1 X87.338 Y81.693 E0.18854
G1 X87.382 Y81.737 E0.19173
G1 X87.59 Y81.737 E0.20238
G1 X87.634 Y81.781 E0.20557
G1 X87.842 Y81.781 E0.21623
G1 X87.888 Y81.827 E0.21956
G1 X88.127 Y81.827 E0.2318
G1 X88.17 Y81.87 E0.23491
G1 X88.512 Y81.87 E0.25243
G1 X88.557 Y81.915 E0.25569
G1 X88.897 Y81.915 E0.27311
G1 X88.941 Y81.959 E0.27629
G1 X89.283 Y81.959 E0.29381
G1 X89.327 Y82.003 E0.297
G1 X89.668 Y82.003 E0.31446
G1 X89.713 Y82.048 E0.31772
G1 X90.053 Y82.048 E0.33514
G1 X90.097 Y82.092 E0.33833
G1 X90.439 Y82.092 E0.35584
G1 X90.483 Y82.136 E0.35903
G1 X90.824 Y82.136 E0.3765
G1 X90.869 Y82.181 E0.37976
G1 X91.21 Y82.181 E0.39722
G1 X91.254 Y82.225 E0.40041
G1 X91.595 Y82.225 E0.41788
G1 X91.64 Y82.27 E0.42114
G1 X91.98 Y82.27 E0.43855
G1 X92.024 Y82.314 E0.44174
G1 X92.366 Y82.314 E0.45926
G1 X92.41 Y82.358 E0.46244
G1 X92.751 Y82.358 E0.47991
G1 X92.796 Y82.403 E0.48317
G1 X93.136 Y82.403 E0.50058
G1 X93.18 Y82.447 E0.50377
G1 X93.522 Y82.447 E0.52129
G1 X93.566 Y82.491 E0.52448
G1 X94.146 Y82.491 E0.55418
G1 X94.191 Y82.536 E0.55744
G1 X94.775 Y82.536 E0.58736
G1 X94.819 Y82.58 E0.59054
G1 X95.404 Y82.58 E0.62051
G1 X95.448 Y82.624 E0.62369
G1 X96.033 Y82.624 E0.65366
G1 X96.077 Y82.668 E0.65685
G1 X96.662 Y82.668 E0.68681
G1 X96.707 Y82.713 E0.69007
G1 X97.291 Y82.713 E0.71998
G1 X97.335 Y82.757 E0.72317
G1 X97.92 Y82.757 E0.75313
G1 X97.964 Y82.801 E0.75632
G1 X98.549 Y82.801 E0.78628
G1 X98.594 Y82.846 E0.78954
G1 X99.178 Y82.846 E0.81946
G1 X99.223 Y82.891 E0.82272
G1 X99.883 Y82.891 E0.85652
G1 X99.926 Y82.934 E0.85964
G1 X101.2 Y82.934 E0.92489
G1 X101.245 Y82.979 E0.92815
G1 X102.517 Y82.979 E0.9933
G1 X102.561 Y83.023 E0.99649
G1 X103.834 Y83.023 E1.0617
G1 X103.878 Y83.067 E1.06488
G1 X105.151 Y83.067 E1.13009
G1 X105.197 Y83.113 E1.13342
G1 X114.803 Y83.113 E1.62544
G1 X114.848 Y83.068 E1.6287
G1 X116.121 Y83.068 E1.69391
G1 X116.165 Y83.024 E1.69709
G1 X117.438 Y83.024 E1.7623
G1 X117.482 Y82.98 E1.76549
G1 X118.754 Y82.98 E1.83064
G1 X118.799 Y82.935 E1.8339
G1 X120.072 Y82.935 E1.8991
G1 X120.116 Y82.891 E1.90229
G1 X120.777 Y82.891 E1.93615
G1 X120.821 Y82.847 E1.93933
G1 X121.405 Y82.847 E1.96925
G1 X121.45 Y82.802 E1.97251
G1 X122.035 Y82.802 E2.00247
G1 X122.079 Y82.758 E2.00566
G1 X122.664 Y82.758 E2.03562
G1 X122.708 Y82.714 E2.03881
G1 X123.292 Y82.714 E2.06872
G1 X123.337 Y82.669 E2.07198
G1 X123.922 Y82.669 E2.10194
G1 X123.966 Y82.625 E2.10513
G1 X124.551 Y82.625 E2.1351
G1 X124.595 Y82.581 E2.13828
G1 X125.18 Y82.581 E2.16825
G1 X125.224 Y82.537 E2.17143
G1 X125.808 Y82.537 E2.20135
G1 X125.853 Y82.492 E2.20461
G1 X126.434 Y82.492 E2.23437
G1 X126.478 Y82.448 E2.23755
G1 X126.819 Y82.448 E2.25502
G1 X126.863 Y82.404 E2.25821
G1 X127.203 Y82.404 E2.27562
G1 X127.248 Y82.359 E2.27888
G1 X127.589 Y82.359 E2.29635
G1 X127.633 Y82.315 E2.29954
G1 X127.975 Y82.315 E2.31705
G1 X128.019 Y82.271 E2.32024
G1 X128.359 Y82.271 E2.33765
G1 X128.404 Y82.226 E2.34091
G1 X128.745 Y82.226 E2.35838
G1 X128.789 Y82.182 E2.36157
G1 X129.13 Y82.182 E2.37903
G1 X129.175 Y82.137 E2.38229
G1 X129.516 Y82.137 E2.39976
G1 X129.56 Y82.093 E2.40295
G1 X129.902 Y82.093 E2.42046
G1 X129.946 Y82.049 E2.42365
G1 X130.286 Y82.049 E2.44107
G1 X130.331 Y82.004 E2.44433
G1 X130.672 Y82.004 E2.46179
G1 X130.716 Y81.96 E2.46498
G1 X131.058 Y81.96 E2.4825
G1 X131.102 Y81.916 E2.48568
G1 X131.442 Y81.916 E2.5031
G1 X131.487 Y81.871 E2.50636
G1 X131.828 Y81.871 E2.52383
G1 X131.872 Y81.827 E2.52701
G1 X132.112 Y81.827 E2.53931
G1 X132.157 Y81.782 E2.54257
G1 X132.365 Y81.782 E2.55322
G1 X132.409 Y81.738 E2.55641
G1 X132.617 Y81.738 E2.56706
G1 X132.661 Y81.694 E2.57025
G1 X132.868 Y81.694 E2.58085
G1 X132.913 Y81.649 E2.58411
G1 X133.121 Y81.649 E2.59476
G1 X133.165 Y81.605 E2.59795
G1 X133.373 Y81.605 E2.60861
G1 X133.417 Y81.561 E2.61179
G1 X133.625 Y81.561 E2.62245
G1 X133.67 Y81.516 E2.62571
G1 X133.878 Y81.516 E2.63636
G1 X133.922 Y81.472 E2.63955
G1 X134.129 Y81.472 E2.65015
G1 X134.174 Y81.427 E2.65341
G1 X134.382 Y81.427 E2.66406
G1 X134.426 Y81.383 E2.66725
G1 X134.634 Y81.383 E2.6779
G1 X134.678 Y81.339 E2.68109
G1 X134.885 Y81.339 E2.69169
G1 X134.93 Y81.294 E2.69495
G1 X135.138 Y81.294 E2.70561
G1 X135.182 Y81.25 E2.70879
G1 X135.39 Y81.25 E2.71945
G1 X135.434 Y81.206 E2.72264
G1 X135.641 Y81.206 E2.73324
G1 X135.686 Y81.161 E2.7365
G1 X135.894 Y81.161 E2.74715
G1 X135.938 Y81.117 E2.75034
G1 X136.103 Y81.117 E2.75879
G1 X136.104 Y101.878 E3.82218
G1 X136.033 Y101.888 E3.82585
G1 X134.701 Y102.133 E3.89522
G1 X134.465 Y102.343 E3.91141
G1 X126.438 Y103.262 E4.32524
G1 X126.359 Y103.262 E4.32929
G1 X125.931 Y103.307 E4.35133
G1 X125.642 Y103.307 E4.36613
G1 X125.203 Y103.351 E4.38873
G1 X125.103 Y103.351 E4.39385
G1 X124.675 Y103.396 E4.4159
G1 X124.384 Y103.396 E4.4308
G1 X123.945 Y103.44 E4.4534
G1 X123.755 Y103.44 E4.46313
G1 X123.316 Y103.484 E4.48573
G1 X123.219 Y103.484 E4.4907
G1 X122.791 Y103.529 E4.51274
G1 X122.497 Y103.529 E4.5278
G1 X122.058 Y103.573 E4.5504
G1 X121.963 Y103.573 E4.55526
G1 X121.535 Y103.618 E4.57731
G1 X121.335 Y103.618 E4.58755
G1 X120.907 Y103.663 E4.6096
G1 X120.221 Y103.663 E4.64473
G1 X120.22 Y90.735 E5.30691
G1 X119.749 Y90.307 E5.33951
G1 X117.48 Y90.537 E5.45633
G1 X116.685 Y90.537 E5.49705
G1 X116.257 Y90.582 E5.51909
G1 X115.368 Y90.582 E5.56462
G1 X114.94 Y90.627 E5.58667
G1 X105.06 Y90.627 E6.09273
G1 X104.632 Y90.582 E6.11477
G1 X103.743 Y90.582 E6.16031
G1 X103.315 Y90.537 E6.18235
G1 X102.54 Y90.537 E6.22204
G1 X100.251 Y90.305 E6.33989
G1 X99.78 Y90.733 E6.37249
G1 X99.78 Y103.662 E7.03472
G1 X99.093 Y103.663 E7.06991
G1 X98.665 Y103.618 E7.09195
G1 X98.465 Y103.618 E7.10219
G1 X98.037 Y103.573 E7.12424
G1 X97.942 Y103.573 E7.1291
G1 X97.503 Y103.529 E7.1517
G1 X97.209 Y103.529 E7.16676
G1 X96.781 Y103.484 E7.1888
G1 X96.684 Y103.484 E7.19377
G1 X96.245 Y103.44 E7.21637
G1 X96.055 Y103.44 E7.2261
G1 X95.616 Y103.396 E7.2487
G1 X95.325 Y103.396 E7.26361
G1 X94.897 Y103.351 E7.28565
G1 X94.797 Y103.351 E7.29077
G1 X94.358 Y103.307 E7.31337
G1 X94.069 Y103.307 E7.32817
G1 X93.641 Y103.262 E7.35022
G1 X93.563 Y103.262 E7.35421
G1 X85.538 Y102.343 E7.76794
G1 X85.302 Y102.132 E7.78416
G1 X83.897 Y101.88 E7.85727
G1 X83.896 Y81.116 E8.92082
G0 F6000 X84.336 Y81.645
G1 F1200 X84.383 Y81.645 E8.92322
G1 X84.427 Y81.689 E8.92641
G1 X84.635 Y81.689 E8.93706
G1 X84.679 Y81.733 E8.94025
G1 X84.887 Y81.733 E8.95091
G1 X84.932 Y81.778 E8.95417
G1 X85.139 Y81.778 E8.96477
G1 X85.183 Y81.822 E8.96796
G1 X85.391 Y81.822 E8.97861
G1 X85.435 Y81.866 E8.9818
G1 X85.643 Y81.866 E8.99245
G1 X85.688 Y81.911 E8.99571
G1 X85.895 Y81.911 E9.00631
G1 X85.939 Y81.955 E9.0095
G1 X86.147 Y81.955 E9.02015
G1 X86.192 Y82 E9.02341
G1 X86.4 Y82 E9.03407
G1 X86.444 Y82.044 E9.03725
G1 X86.652 Y82.044 E9.04791
G1 X86.696 Y82.088 E9.0511
G1 X86.904 Y82.088 E9.06175
G1 X86.949 Y82.133 E9.06501
G1 X87.156 Y82.133 E9.07561
G1 X87.2 Y82.177 E9.0788
G1 X87.408 Y82.177 E9.08945
G1 X87.452 Y82.221 E9.09264
G1 X87.66 Y82.221 E9.10329
G1 X87.706 Y82.267 E9.10663
G1 X87.945 Y82.267 E9.11887
G1 X87.988 Y82.31 E9.12198
G1 X88.33 Y82.31 E9.1395
G1 X88.375 Y82.355 E9.14276
G1 X88.715 Y82.355 E9.16017
G1 X88.759 Y82.399 E9.16336
G1 X89.101 Y82.399 E9.18088
G1 X89.145 Y82.443 E9.18407
G1 X89.486 Y82.443 E9.20153
G1 X89.531 Y82.488 E9.20479
G1 X89.871 Y82.488 E9.22221
G1 X89.915 Y82.532 E9.22539
G1 X90.257 Y82.532 E9.24291
G1 X90.301 Y82.576 E9.2461
G1 X90.642 Y82.576 E9.26357
G1 X90.687 Y82.621 E9.26683
G1 X91.028 Y82.621 E9.28429
G1 X91.072 Y82.665 E9.28748
G1 X91.413 Y82.665 E9.30495
G1 X91.458 Y82.71 E9.3082
G1 X91.798 Y82.71 E9.32562
G1 X91.842 Y82.754 E9.32881
G1 X92.184 Y82.754 E9.34632
G1 X92.228 Y82.798 E9.34951
G1 X92.569 Y82.798 E9.36698
G1 X92.614 Y82.843 E9.37024
G1 X92.954 Y82.843 E9.38765
G1 X92.998 Y82.887 E9.39084
G1 X93.34 Y82.887 E9.40836
G1 X93.384 Y82.931 E9.41154
G1 X93.964 Y82.931 E9.44125
G1 X94.009 Y82.976 E9.44451
G1 X94.593 Y82.976 E9.47442
G1 X94.637 Y83.02 E9.47761
G1 X95.222 Y83.02 E9.50758
G1 X95.266 Y83.064 E9.51076
G1 X95.851 Y83.064 E9.54073
G1 X95.895 Y83.108 E9.54391
G1 X96.48 Y83.108 E9.57388
G1 X96.525 Y83.153 E9.57714
G1 X97.109 Y83.153 E9.60705
G1 X97.153 Y83.197 E9.61024
G1 X97.738 Y83.197 E9.6402
G1 X97.782 Y83.241 E9.64339
G1 X98.367 Y83.241 E9.67335
G1 X98.412 Y83.286 E9.67661
G1 X98.996 Y83.286 E9.70653
G1 X99.041 Y83.331 E9.70979
G1 X99.701 Y83.331 E9.74359
G1 X99.744 Y83.374 E9.74671
G1 X101.018 Y83.374 E9.81196
G1 X101.063 Y83.419 E9.81522
G1 X102.335 Y83.419 E9.88037
G1 X102.379 Y83.463 E9.88356
G1 X103.652 Y83.463 E9.94876
G1 X103.696 Y83.507 E9.95195
G1 X104.969 Y83.507 E10.01716
G1 X105.015 Y83.553 E10.02049
G1 X114.985 Y83.553 E10.53116
G1 X115.03 Y83.508 E10.53442
G1 X116.303 Y83.508 E10.59962
G1 X116.347 Y83.464 E10.60281
G1 X117.62 Y83.464 E10.66801
G1 X117.664 Y83.42 E10.6712
G1 X118.936 Y83.42 E10.73635
G1 X118.981 Y83.375 E10.73961
G1 X120.254 Y83.375 E10.80482
G1 X120.298 Y83.331 E10.808
G1 X120.959 Y83.331 E10.84186
G1 X121.003 Y83.287 E10.84505
G1 X121.587 Y83.287 E10.87496
G1 X121.632 Y83.242 E10.87822
G1 X122.217 Y83.242 E10.90818
G1 X122.261 Y83.198 E10.91137
G1 X122.846 Y83.198 E10.94133
G1 X122.89 Y83.154 E10.94452
G1 X123.474 Y83.154 E10.97443
G1 X123.519 Y83.109 E10.97769
G1 X124.104 Y83.109 E11.00766
G1 X124.148 Y83.065 E11.01085
G1 X124.733 Y83.065 E11.04081
G1 X124.777 Y83.021 E11.044
G1 X125.362 Y83.021 E11.07396
G1 X125.406 Y82.977 E11.07715
G1 X125.99 Y82.977 E11.10706
G1 X126.035 Y82.932 E11.11032
G1 X126.616 Y82.932 E11.14008
G1 X126.66 Y82.888 E11.14327
G1 X127.001 Y82.888 E11.16073
G1 X127.045 Y82.844 E11.16392
G1 X127.385 Y82.844 E11.18134
G1 X127.43 Y82.799 E11.18459
G1 X127.771 Y82.799 E11.20206
G1 X127.815 Y82.755 E11.20525
G1 X128.157 Y82.755 E11.22277
G1 X128.201 Y82.711 E11.22595
G1 X128.541 Y82.711 E11.24337
G1 X128.586 Y82.666 E11.24663
G1 X128.927 Y82.666 E11.26409
G1 X128.971 Y82.622 E11.26728
G1 X129.312 Y82.622 E11.28475
G1 X129.357 Y82.577 E11.28801
G1 X129.698 Y82.577 E11.30547
G1 X129.742 Y82.533 E11.30866
G1 X130.084 Y82.533 E11.32618
G1 X130.128 Y82.489 E11.32937
G1 X130.468 Y82.489 E11.34678
G1 X130.513 Y82.444 E11.35004
G1 X130.854 Y82.444 E11.36751
G1 X130.898 Y82.4 E11.37069
G1 X131.24 Y82.4 E11.38821
G1 X131.284 Y82.356 E11.3914
G1 X131.624 Y82.356 E11.40881
G1 X131.669 Y82.311 E11.41207
G1 X132.01 Y82.311 E11.42954
G1 X132.054 Y82.267 E11.43273
G1 X132.294 Y82.267 E11.44502
G1 X132.339 Y82.222 E11.44828
G1 X132.547 Y82.222 E11.45893
G1 X132.591 Y82.178 E11.46212
G1 X132.799 Y82.178 E11.47277
G1 X132.843 Y82.134 E11.47596
G1 X133.05 Y82.134 E11.48656
G1 X133.095 Y82.089 E11.48982
G1 X133.303 Y82.089 E11.50048
G1 X133.347 Y82.045 E11.50366
G1 X133.555 Y82.045 E11.51432
G1 X133.599 Y82.001 E11.51751
G1 X133.807 Y82.001 E11.52816
G1 X133.852 Y81.956 E11.53142
G1 X134.06 Y81.956 E11.54207
G1 X134.104 Y81.912 E11.54526
G1 X134.311 Y81.912 E11.55586
G1 X134.356 Y81.867 E11.55912
G1 X134.564 Y81.867 E11.56978
G1 X134.608 Y81.823 E11.57296
G1 X134.816 Y81.823 E11.58362
G1 X134.86 Y81.779 E11.5868
G1 X135.067 Y81.779 E11.59741
G1 X135.112 Y81.734 E11.60067
G1 X135.32 Y81.734 E11.61132
G1 X135.364 Y81.69 E11.61451
G1 X135.572 Y81.69 E11.62516
G1 X135.616 Y81.646 E11.62835
G1 X135.663 Y81.646 E11.63076
G1 X135.664 Y101.509 E12.64815
G1 X134.5 Y101.723 E12.70877
G1 X134.277 Y101.922 E12.72408
G1 X126.414 Y102.822 E13.12946
G1 X126.336 Y102.822 E13.13345
G1 X125.904 Y102.867 E13.1557
G1 X125.62 Y102.867 E13.17025
G1 X125.179 Y102.911 E13.19295
G1 X125.08 Y102.911 E13.19802
G1 X124.648 Y102.956 E13.22026
G1 X124.362 Y102.956 E13.23491
G1 X123.921 Y103 E13.25761
G1 X123.733 Y103 E13.26724
G1 X123.292 Y103.044 E13.28994
G1 X123.196 Y103.044 E13.29486
G1 X122.764 Y103.089 E13.31711
G1 X122.475 Y103.089 E13.33191
G1 X122.034 Y103.133 E13.35461
G1 X121.94 Y103.133 E13.35943
G1 X121.508 Y103.178 E13.38167
G1 X121.312 Y103.178 E13.39171
G1 X120.88 Y103.223 E13.41396
G1 X120.661 Y103.223 E13.42518
G1 X120.66 Y90.54 E14.07481
G1 X119.9 Y89.849 E14.12742
G1 X117.456 Y90.097 E14.25325
G1 X116.662 Y90.097 E14.29392
G1 X116.23 Y90.142 E14.31616
G1 X115.345 Y90.142 E14.36149
G1 X114.913 Y90.187 E14.38374
G1 X105.087 Y90.187 E14.88703
G1 X104.655 Y90.142 E14.90928
G1 X103.77 Y90.142 E14.95461
G1 X103.338 Y90.097 E14.97686
G1 X102.564 Y90.097 E15.0165
G1 X100.1 Y89.847 E15.14336
G1 X99.34 Y90.538 E15.19597
G1 X99.34 Y103.223 E15.8457
G1 X99.119 Y103.223 E15.85702
G1 X98.688 Y103.178 E15.87922
G1 X98.492 Y103.178 E15.88926
G1 X98.06 Y103.133 E15.91151
G1 X97.966 Y103.133 E15.91632
G1 X97.525 Y103.089 E15.93902
G1 X97.236 Y103.089 E15.95382
G1 X96.804 Y103.044 E15.97607
G1 X96.708 Y103.044 E15.98099
G1 X96.267 Y103 E16.00369
G1 X96.079 Y103 E16.01332
G1 X95.638 Y102.956 E16.03602
G1 X95.352 Y102.956 E16.05067
G1 X94.92 Y102.911 E16.07291
G1 X94.821 Y102.911 E16.07799
G1 X94.38 Y102.867 E16.10069
G1 X94.096 Y102.867 E16.11523
G1 X93.664 Y102.822 E16.13748
G1 X93.587 Y102.822 E16.14142
G1 X85.727 Y101.922 E16.54665
G1 X85.502 Y101.721 E16.5621
G1 X84.337 Y101.512 E16.62273
G1 X84.336 Y81.645 E17.64033
G1 F2700 E12.64033
G1 F600 Z0.48
G0 F6000 X85.8 Y81.999 Z0.48
G1 F600 Z0.28
G1 F2700 E17.64033
G1 F1200 X85.8 Y101.841 E18.65665
G1 F2700 E13.65665
G1 F600 Z0.48
G0 F6000 X84.424 Y101.2 Z0.48
G1 F600 Z0.28
G1 F2700 E18.65665
G1 F1200 X99.252 Y101.2 E19.41614
G1 F2700 E14.41614
G1 F600 Z0.48
G0 F6000 X99 Y103.122 Z0.48
G1 F600 Z0.28
G1 F2700 E19.41614
G1 F1200 X99 Y83.415 E20.42555
G1 F2700 E15.42555
G1 F600 Z0.48
G0 F6000 X101.2 Y83.507 Z0.48
G1 F600 Z0.28
G1 F2700 E20.42555
G1 F1200 X101.2 Y89.869 E20.75141
G1 F2700 E15.75141
G1 F600 Z0.48
G0 F6000 X99.581 Y90.2 Z0.48
G1 F600 Z0.28
G1 F2700 E20.75141
G1 F1200 X84.424 Y90.2 E21.52777
G1 F2700 E16.52777
G1 F600 Z0.48
G0 F6000 X84.424 Y88 Z0.48
G1 F600 Z0.28
G1 F2700 E21.52777
G1 F1200 X135.576 Y88 E24.1478
G1 F2700 E19.1478
G1 F600 Z0.48
G0 F6000 X135.576 Y85.8 Z0.48
G1 F600 Z0.28
G1 F2700 E24.1478
G1 F1200 X84.424 Y85.8 E26.76784
G1 F2700 E21.76784
G1 F600 Z0.48
G0 F6000 X84.424 Y83.6 Z0.48
G1 F600 Z0.28
G1 F2700 E26.76784
G1 F1200 X104.938 Y83.6 E27.81858
G0 F6000 X105.6 Y83.641
G1 F1200 X105.6 Y90.099 E28.14936
G1 F2700 E23.14936
G1 F600 Z0.48
G0 F6000 X107.8 Y90.099 Z0.48
G1 F600 Z0.28
G1 F2700 E28.14936
G1 F1200 X107.8 Y83.641 E28.48014
G1 F2700 E23.48014
G1 F600 Z0.48
